Sources/FrostedUI/Resources/Icons.xcassets/rotateCard24.imageset/rotate-card-24.svg

<svg width="24" height="24" viewBox="0 0 24 24" fill="none" xmlns="http://www.w3.org/2000/svg" data-fui-icon="true">
  <path
    d="M7.5 5.14917C7.50006 2.28013 10.1491 0.144176 12.9531 0.751709L20.4531 2.37671C22.523 2.82533 24 4.65623 24 6.77417V17.2253C24 19.3433 22.523 21.1742 20.4531 21.6228L12.9531 23.2478C10.1491 23.8553 7.50006 21.7194 7.5 18.8503V15.9998C7.5 15.5855 7.83579 15.2498 8.25 15.2498C8.66421 15.2498 9 15.5855 9 15.9998V18.8503C9.00006 20.763 10.7664 22.187 12.6357 21.782L20.1357 20.157C21.5155 19.8578 22.5 18.6372 22.5 17.2253V6.77417C22.5 5.36233 21.5155 4.14172 20.1357 3.84253L12.6357 2.21753C10.7664 1.81251 9.00006 3.23649 9 5.14917V8.24976C9 8.66397 8.66421 8.99976 8.25 8.99976C7.83579 8.99976 7.5 8.66397 7.5 8.24976V5.14917ZM13.4697 7.96948C13.7626 7.67659 14.2374 7.67659 14.5303 7.96948L18.0303 11.4695C18.3231 11.7624 18.3232 12.2371 18.0303 12.53L14.5303 16.03C14.2374 16.3229 13.7626 16.3229 13.4697 16.03C13.1768 15.7371 13.1769 15.2624 13.4697 14.9695L15.6895 12.7498H3.25C2.67469 12.7498 2.31087 12.9369 2.09277 13.155C1.86764 13.3802 1.75 13.6853 1.75 13.9998C1.75002 14.3141 1.86771 14.6192 2.09277 14.8445C2.31091 15.0627 2.67483 15.2507 3.25 15.2507C3.66421 15.2507 4 15.5865 4 16.0007C3.9997 16.4147 3.66403 16.7507 3.25 16.7507C2.32522 16.7507 1.56409 16.437 1.03223 15.905C0.507487 15.3801 0.250018 14.6852 0.25 13.9998C0.25 13.3142 0.507404 12.6193 1.03223 12.0945C1.56413 11.5626 2.32531 11.2498 3.25 11.2498H15.6895L13.4697 9.03003C13.1768 8.73715 13.1769 8.26238 13.4697 7.96948Z"
    fill="currentColor"
  />
</svg>

<svg xmlns="http://www.w3.org/2000/svg" width="24" height="24" fill="none" data-fui-icon="true" viewBox="0 0 24 24"><path fill="currentColor" d="M7.5 5.15c0-2.87 2.65-5.006 5.453-4.398l7.5 1.625A4.5 4.5 0 0 1 24 6.774v10.451a4.5 4.5 0 0 1-3.547 4.398l-7.5 1.625C10.15 23.855 7.5 21.719 7.5 18.85V16A.75.75 0 1 1 9 16v2.85a3 3 0 0 0 3.636 2.932l7.5-1.625a3 3 0 0 0 2.364-2.932V6.775a3 3 0 0 0-2.364-2.932l-7.5-1.625A3 3 0 0 0 9 5.149v3.1a.75.75 0 0 1-1.5 0zm5.97 2.82a.75.75 0 0 1 1.06 0l3.5 3.5a.75.75 0 0 1 0 1.06l-3.5 3.5a.75.75 0 1 1-1.06-1.06l2.22-2.22H3.25c-.575 0-.94.187-1.157.405A1.2 1.2 0 0 0 1.75 14c0 .314.118.62.343.845.218.218.582.406 1.157.406a.75.75 0 0 1 0 1.5c-.925 0-1.686-.314-2.218-.846A2.7 2.7 0 0 1 .25 14c0-.686.257-1.38.782-1.905.532-.532 1.293-.845 2.218-.845h12.44l-2.22-2.22a.75.75 0 0 1 0-1.06"/></svg>
